X:1
T:Rio Grande
M:6/8
L:1/8
K:D
 A,| DDD FFF|E-D E D3| A3- A2 F| B A4 A| BdB AGF|G-A G FDE| F3/2 G/2 FE-D E|\
 D3 D2 E| F3E-D E| D6| A3- A2 F| B A4 A|B-d BA-G F| FAG FDE| F3/2 G/2 FE-D E|\
 D3- D2||
